X:1
T:Title
%%score { ( 1 4 ) | ( 2 3 ) }
L:1/8
M:2/4
K:G
V:1 treble nm="Grand Piano"
V:4 treble 
V:2 bass 
V:3 bass 
V:1
 z2 z[Q:1/4=100] [B,D] | [B,D]2 [B,D][CE] | [B,D] [B,G]2 [B,DG] | GF EF | [B,DG]3 [DF] | %5
 [EA]G [DF][CE] | [CE] [B,D]2 G | A2 Bc | B3 d | [Bd]2 [Ac][GB] | [Bd]2 [Ac][GB] | %11
 [GB][FA] [FA][GB] | [Ac]3 [FA] | B2 AG | [DF]E EE | DG GF | [B,DG]4 | [DB]2 [DB]>[Ec] | [DB]4 | %19
 [B,DG]2 [CEG]>[CEA] | [B,DG]4 | [B,EG]2 [B,EG][B,EG] | [DFA]2 [DGB]2 | A4 | z4 | [Gd]2 [Fd][Fc] | %26
 [GB]3 [FA] | AG [DF][CE] | [B,D]3 [B,D] | %29
 [CE][DF] [EG]A[Q:1/4=99][Q:1/4=97][Q:1/4=96][Q:1/4=94][Q:1/4=93][Q:1/4=91][Q:1/4=90][Q:1/4=88][Q:1/4=87][Q:1/4=85][Q:1/4=84][Q:1/4=82][Q:1/4=81][Q:1/4=79][Q:1/4=78][Q:1/4=76] | %30
 B2 z2 |[M:3/8] [B,G]3 |] %32
V:2
 z2 z [G,,G,] | [G,,G,]2 [G,,G,][G,,G,] | [G,,G,] [G,,G,]2 G,, | [D,CD]2 [D,CD][D,CD] | %4
 [G,,G,]3 [B,,G,] | [C,G,]2 [C,G,][C,G,] | [G,,G,] [G,,G,]2 [E,G,B,] | [D,F,D]2 [D,G,D][D,A,D] | %8
 [G,D]3 [G,B,G] | [G,D]2 [G,D][G,D] | [G,B,]2 [G,D][G,D] | [D,D]2 [D,D][D,D] | [D,D]3 [D,D] | %13
 [G,DG]2 [G,CD][K:bass][G,B,D] | z C [C,G,C][C,G,C] | [G,B,][B,D] [D,CD][D,CD] | G,,4 | G,2 G,>G, | %18
 G,4 | G,2 C,>C, | G,,4 | E,2 E,E, | D,2 G,2 | z4 | d4 | [G,B,]2 [D,A,][D,A,] | [G,D]3 [D,D] | %27
 [C,C]2 [C,G,]2 | [G,,G,]3 [G,,G,] | [C,G,]2 z ^D | .[D,G,D]2 D,2 |[M:3/8] G,,3 |] %32
V:3
 x4 | x4 | x4 | x4 | x4 | x4 | x4 | x4 | x4 | x4 | x4 | x4 | x4 | x3[K:bass] x | [C,G,]2 z2 | %15
 D,2 z2 | x4 | x4 | x4 | x4 | x4 | x4 | x4 | D,4- | D,4 | x4 | x4 | x4 | x4 | z2 [C,G,]2 | x4 | %31
[M:3/8] x3 |] %32
V:4
 x4 | x4 | x4 | x4 | x4 | x4 | x4 | x4 | x4 | x4 | x4 | x4 | x4 | x4 | x4 | x4 | x4 | x4 | x4 | %19
 x4 | x4 | x4 | x4 | [DF]4- | [DF]4 | x4 | x4 | E2 z2 | x4 | x4 | z D [CFA]2 |[M:3/8] x3 |] %32

